X: 32705
T: Polka D'Uzeste
R: polka
M: 2/4
K: Gmajor
|:GA/B/ AG|BB B2|Bc/d/ cB|dd d2|
de/d/ cB|dc c2|AB/c/ BA|Bc d2:|
B2 B2|de d2|B2 B2|dg f2|
A2 A2|cd c2|A/c/A/c/ dc|A/c/A/c/ ed|
B2 B2|de d2|B2 B2|dg f2|
ee ef/e/|dd d2|f/e/d f/e/d|gg g2||

